X: 6
T:Persian Dance. Car.06
T:Richards or the.. Car.06
T:Galopede,aka. Car.06
M:2/4
L:1/16
Q:120
C:Galopede,aka
S:CarlisleMS,Anon.c1812.AGG's transcription
R:Gallop
O:England
A:Carlisle
Z:vmp.Chris Partington
K:G
dc|B2Bc A2AB|G2G2G2 AB|cBcd BABc|A2A2A2 d2|!
B2Bc A2AB|G2G2G2 AB|c2AG FGAB|G2G2G2:|!
|:dc|B2gf e2ed|dcBc A2 dc|B2gf edcB|.A2.A2.A2 dc|!
B2gf e2ed|dcBc A2 dc|BdBG AcBA|G2G2G2:|!
|:Bc|d2d2d2g2|d2d2d2g2|d2d2 .e.d.c.B|A2A2A2 Bc|!
d2d2d2g2|d2d2d2g2|d2B2 dcBA|G2G2G2:|]
